Newaita-dark/actions/32/media-playlist-repeat.svg

<svg height="32" viewBox="0 0 32 32" width="32" xmlns="http://www.w3.org/2000/svg"><g fill="#e0e0e0"><path d="m8.601562 29.355469-4.632812-6.613281h3.308594v-19.183594c0-.367188.292968-.664063.660156-.664063h1.324219c.367187 0 .660156.296875.660156.664063v19.183594h3.308594zm0 0"/><path d="m23.152344 2.894531-4.628906 6.617188h3.308593v19.183593c0 .367188.292969.660157.660157.660157h1.324218c.363282 0 .660156-.292969.660156-.660157v-19.183593h3.308594zm0 0"/></g></svg>

<?xml version="1.0" encoding="UTF-8"?>
<svg xmlns="http://www.w3.org/2000/svg" xmlns:xlink="http://www.w3.org/1999/xlink" width="32px" height="32px" viewBox="0 0 32 32" version="1.1">
<g id="surface1">
<path style=" stroke:none;fill-rule:nonzero;fill:rgb(87.843138%,87.843138%,87.843138%);fill-opacity:1;" d="M 8.601562 29.355469 L 3.96875 22.742188 L 7.277344 22.742188 L 7.277344 3.558594 C 7.277344 3.191406 7.570312 2.894531 7.9375 2.894531 L 9.261719 2.894531 C 9.628906 2.894531 9.921875 3.191406 9.921875 3.558594 L 9.921875 22.742188 L 13.230469 22.742188 Z M 8.601562 29.355469 "/>
<path style=" stroke:none;fill-rule:nonzero;fill:rgb(87.843138%,87.843138%,87.843138%);fill-opacity:1;" d="M 23.152344 2.894531 L 18.523438 9.511719 L 21.832031 9.511719 L 21.832031 28.695312 C 21.832031 29.0625 22.125 29.355469 22.492188 29.355469 L 23.816406 29.355469 C 24.179688 29.355469 24.476562 29.0625 24.476562 28.695312 L 24.476562 9.511719 L 27.785156 9.511719 Z M 23.152344 2.894531 "/>
</g>
</svg>
